public/icons/chart.svg

<svg width="19" height="19" viewBox="0 0 19 19" fill="none" xmlns="http://www.w3.org/2000/svg">
<path fill-rule="evenodd" clip-rule="evenodd" d="M14.75 2H4.25C3.00736 2 2 3.00736 2 4.25V11.75C2 12.9926 3.00736 14 4.25 14H8.43934L5.96967 16.4697C5.67678 16.7626 5.67678 17.2374 5.96967 17.5303C6.26256 17.8232 6.73744 17.8232 7.03033 17.5303L9.5 15.0607L11.9697 17.5303C12.2626 17.8232 12.7374 17.8232 13.0303 17.5303C13.3232 17.2374 13.3232 16.7626 13.0303 16.4697L10.5607 14H14.75C15.9926 14 17 12.9926 17 11.75V4.25C17 3.00736 15.9926 2 14.75 2ZM4.46967 11.2804C4.17678 10.9875 4.17678 10.5126 4.46967 10.2197L7.46967 7.21974C7.74194 6.94747 8.17616 6.92561 8.4744 7.16917L9.42978 7.9494L11.9509 5.23924C12.0924 5.08708 12.2907 5.00047 12.4985 5.00007C12.7064 4.99967 12.905 5.08551 13.0472 5.23711L14.5472 6.83711C14.8305 7.1393 14.8151 7.61392 14.513 7.89722C14.2108 8.18052 13.7361 8.16521 13.4528 7.86302L12.5021 6.84893L10.0491 9.4859C9.77979 9.77545 9.3319 9.80611 9.0256 9.55597L8.05083 8.7599L5.53033 11.2804C5.23744 11.5733 4.76256 11.5733 4.46967 11.2804Z" fill="#475367"/>
</svg>

<svg xmlns="http://www.w3.org/2000/svg" width="19" height="19" fill="none"><path fill="#475367" fill-rule="evenodd" d="M14.75 2H4.25A2.25 2.25 0 0 0 2 4.25v7.5A2.25 2.25 0 0 0 4.25 14h4.19l-2.47 2.47a.75.75 0 1 0 1.06 1.06l2.47-2.47 2.47 2.47a.75.75 0 1 0 1.06-1.06L10.56 14h4.19A2.25 2.25 0 0 0 17 11.75v-7.5A2.25 2.25 0 0 0 14.75 2M4.47 11.28a.75.75 0 0 1 0-1.06l3-3a.75.75 0 0 1 1.004-.05l.956.78 2.52-2.71a.75.75 0 0 1 1.097-.003l1.5 1.6a.75.75 0 0 1-1.094 1.026l-.95-1.014-2.454 2.637a.75.75 0 0 1-1.023.07L8.05 8.76l-2.52 2.52a.75.75 0 0 1-1.061 0" clip-rule="evenodd"/></svg>
